jialixishu/static/image/index/page7/icon_02.svg

<svg fill="none" height="36" viewBox="0 0 36 36" width="36" xmlns="http://www.w3.org/2000/svg"><path d="m4.86526 8.09236 3.74475-3.7395c.26416-.2652.57811-.47559.92382-.6191s.71637-.21731 1.09067-.21715c.3749-.00076.7461.07275 1.0924.21629.3463.14353.6607.35424.9251.61996l4.029 4.029c.2653.2641.4759.57802.6195.92373.1436.34572.2176.71641.2175 1.09081 0 .7627-.2992 1.4797-.837 2.0175l-2.946 2.946c.6895 1.5199 1.6482 2.9026 2.8298 4.0815 1.1789 1.1844 2.5618 2.1466 4.0822 2.8402l2.946-2.946c.2642-.2652.5781-.4756.9238-.6191s.7164-.2173 1.0907-.2171c.3749-.0008.7461.0727 1.0924.2162.3463.1436.6607.3543.9251.62l4.0328 4.0253c.2655.2646.4761.5792.6196.9256.1435.3463.2171.7177.2166 1.0926 0 .7628-.2985 1.4805-.8362 2.0175l-3.7373 3.7373c-.8649.8632-2.0367 1.3487-3.2587 1.35-.2565 0-.5025-.021-.7455-.063-4.7393-.78-9.4395-3.3008-13.233-7.0913-3.78979-3.786-6.30754-8.4825-7.09804-13.236-.11604-.7213-.05965-1.4598.16457-2.15516.22421-.69533.60988-1.32769 1.12543-1.84533z" fill="#fff"/></svg>

<svg width="36" height="36" viewBox="0 0 36 36" fill="none" xmlns="http://www.w3.org/2000/svg">
<path d="M4.86526 8.09236L8.61001 4.35286C8.87417 4.08766 9.18812 3.87727 9.53383 3.73376C9.87954 3.59025 10.2502 3.51645 10.6245 3.51661C10.9994 3.51585 11.3706 3.58936 11.7169 3.7329C12.0632 3.87643 12.3776 4.08714 12.642 4.35286L16.671 8.38186C16.9363 8.64596 17.1469 8.95988 17.2905 9.30559C17.4341 9.65131 17.5081 10.022 17.508 10.3964C17.508 11.1591 17.2088 11.8761 16.671 12.4139L13.725 15.3599C14.4145 16.8798 15.3732 18.2625 16.5548 19.4414C17.7337 20.6258 19.1166 21.588 20.637 22.2816L23.583 19.3356C23.8472 19.0704 24.1611 18.86 24.5068 18.7165C24.8525 18.573 25.2232 18.4992 25.5975 18.4994C25.9724 18.4986 26.3436 18.5721 26.6899 18.7156C27.0362 18.8592 27.3506 19.0699 27.615 19.3356L31.6478 23.3609C31.9133 23.6255 32.1239 23.9401 32.2674 24.2865C32.4109 24.6328 32.4845 25.0042 32.484 25.3791C32.484 26.1419 32.1855 26.8596 31.6478 27.3966L27.9105 31.1339C27.0456 31.9971 25.8738 32.4826 24.6518 32.4839C24.3953 32.4839 24.1493 32.4629 23.9063 32.4209C19.167 31.6409 14.4668 29.1201 10.6733 25.3296C6.88351 21.5436 4.36576 16.8471 3.57526 12.0936C3.45922 11.3723 3.51561 10.6338 3.73983 9.93844C3.96404 9.24311 4.34971 8.61075 4.86526 8.09311V8.09236Z" fill="white"/>
</svg>
